Newaita/actions/22/media-album-cover-manager-amarok.svg

<svg height="22" viewBox="0 0 22 22" width="22" xmlns="http://www.w3.org/2000/svg"><g fill="#424242"><path d="m10.914062 3.808594c-4.03125 0-7.277343 3.246094-7.277343 7.277344s3.246093 7.277343 7.277343 7.277343 7.277344-3.246093 7.277344-7.277343-3.246094-7.277344-7.277344-7.277344zm0 .910156c3.527344 0 6.367188 2.839844 6.367188 6.367188 0 3.527343-2.839844 6.367187-6.367188 6.367187-3.527343 0-6.367187-2.839844-6.367187-6.367187 0-3.527344 2.839844-6.367188 6.367187-6.367188zm0 0"/><path d="m10.914062 8.359375c-1.511718 0-2.726562 1.214844-2.726562 2.726563 0 1.511718 1.214844 2.730468 2.726562 2.730468 1.511719 0 2.730469-1.21875 2.730469-2.730468 0-1.511719-1.21875-2.726563-2.730469-2.726563zm0 .910156c1.007813 0 1.820313.808594 1.820313 1.816407 0 1.007812-.8125 1.820312-1.820313 1.820312-1.007812 0-1.816406-.8125-1.816406-1.820312 0-1.007813.808594-1.816407 1.816406-1.816407zm0 0"/><path d="m3.636719 1.992188c-1.007813 0-1.816407.808593-1.816407 1.816406v14.554687c0 1.007813.808594 1.820313 1.816407 1.820313h14.554687c1.007813 0 1.820313-.8125 1.820313-1.820313v-14.554687c0-1.007813-.8125-1.816406-1.820313-1.816406zm.910156 1.816406h12.734375c.503906 0 .910156.40625.910156.910156v12.734375c0 .503906-.40625.910156-.910156.910156h-12.734375c-.503906 0-.910156-.40625-.910156-.910156v-12.734375c0-.503906.40625-.910156.910156-.910156zm0 0"/></g></svg>

<?xml version="1.0" encoding="UTF-8"?>
<svg xmlns="http://www.w3.org/2000/svg" xmlns:xlink="http://www.w3.org/1999/xlink" width="22px" height="22px" viewBox="0 0 22 22" version="1.1">
<g id="surface1">
<path style=" stroke:none;fill-rule:nonzero;fill:rgb(25.882354%,25.882354%,25.882354%);fill-opacity:1;" d="M 10.914062 3.808594 C 6.882812 3.808594 3.636719 7.054688 3.636719 11.085938 C 3.636719 15.117188 6.882812 18.363281 10.914062 18.363281 C 14.945312 18.363281 18.191406 15.117188 18.191406 11.085938 C 18.191406 7.054688 14.945312 3.808594 10.914062 3.808594 Z M 10.914062 4.71875 C 14.441406 4.71875 17.28125 7.558594 17.28125 11.085938 C 17.28125 14.613281 14.441406 17.453125 10.914062 17.453125 C 7.386719 17.453125 4.546875 14.613281 4.546875 11.085938 C 4.546875 7.558594 7.386719 4.71875 10.914062 4.71875 Z M 10.914062 4.71875 "/>
<path style=" stroke:none;fill-rule:nonzero;fill:rgb(25.882354%,25.882354%,25.882354%);fill-opacity:1;" d="M 10.914062 8.359375 C 9.402344 8.359375 8.1875 9.574219 8.1875 11.085938 C 8.1875 12.597656 9.402344 13.816406 10.914062 13.816406 C 12.425781 13.816406 13.644531 12.597656 13.644531 11.085938 C 13.644531 9.574219 12.425781 8.359375 10.914062 8.359375 Z M 10.914062 9.269531 C 11.921875 9.269531 12.734375 10.078125 12.734375 11.085938 C 12.734375 12.09375 11.921875 12.90625 10.914062 12.90625 C 9.90625 12.90625 9.097656 12.09375 9.097656 11.085938 C 9.097656 10.078125 9.90625 9.269531 10.914062 9.269531 Z M 10.914062 9.269531 "/>
<path style=" stroke:none;fill-rule:nonzero;fill:rgb(25.882354%,25.882354%,25.882354%);fill-opacity:1;" d="M 3.636719 1.992188 C 2.628906 1.992188 1.820312 2.800781 1.820312 3.808594 L 1.820312 18.363281 C 1.820312 19.371094 2.628906 20.183594 3.636719 20.183594 L 18.191406 20.183594 C 19.199219 20.183594 20.011719 19.371094 20.011719 18.363281 L 20.011719 3.808594 C 20.011719 2.800781 19.199219 1.992188 18.191406 1.992188 Z M 4.546875 3.808594 L 17.28125 3.808594 C 17.785156 3.808594 18.191406 4.214844 18.191406 4.71875 L 18.191406 17.453125 C 18.191406 17.957031 17.785156 18.363281 17.28125 18.363281 L 4.546875 18.363281 C 4.042969 18.363281 3.636719 17.957031 3.636719 17.453125 L 3.636719 4.71875 C 3.636719 4.214844 4.042969 3.808594 4.546875 3.808594 Z M 4.546875 3.808594 "/>
</g>
</svg>
